img/pinterest.svg

<svg width="32" height="33" viewBox="0 0 32 33" fill="none" xmlns="http://www.w3.org/2000/svg">
<path fill-rule="evenodd" clip-rule="evenodd" d="M0 16.5C0 7.66344 7.16344 0.5 16 0.5C24.8366 0.5 32 7.66344 32 16.5C32 25.3366 24.8366 32.5 16 32.5C7.16344 32.5 0 25.3366 0 16.5ZM8 16.5C8 12.1 11.6 8.5 16 8.5C20.4 8.5 24 12.1 23.9 16.1C23.9 20.5 20.3 24.1 15.9 24.1C15.1 24.1 14.3 24 13.6 23.8C13.9 23.3 14.2 22.7 14.4 22.1C14.5 21.7 15 19.9 15 19.9C15.3 20.4 16.1 20.9 17 20.9C19.6 20.9 21.3 18.5 21.3 15.4C21.3 13 19.3 10.8 16.2 10.8C12.4 10.8 10.5 13.5 10.5 15.8C10.5 17.2 11 18.4 12.1 18.9C12.3 19 12.4 18.9 12.5 18.7C12.6 18.6 12.7 18.2 12.7 18.1C12.7707 17.9586 12.7414 17.9172 12.6828 17.8343C12.6586 17.8 12.6293 17.7586 12.6 17.7C12.3 17.3 12.1 16.8 12.1 16.1C12.1 14.1 13.6 12.3 16 12.3C18.1 12.3 19.3 13.6 19.3 15.4C19.3 17.8 18.3 19.7 16.8 19.7C15.9 19.7 15.3 19 15.5 18.2C15.5835 17.7826 15.7192 17.3477 15.8491 16.9318C16.0303 16.3514 16.2 15.8078 16.2 15.4C16.2 14.7 15.8 14.2 15.1 14.2C14.3 14.2 13.6 15.1 13.6 16.3C13.6 17.1 13.9 17.6 13.9 17.6C13.9 17.6 13.1 21.3 12.9 22C12.8 22.6 12.8 23.1999 12.8 23.7999C10 22.5999 8 19.8 8 16.5Z" fill="#C0B7E8"/>
</svg>

<svg width="32" height="33" fill="none" xmlns="http://www.w3.org/2000/svg"><path fill-rule="evenodd" clip-rule="evenodd" d="M0 16.5C0 7.663 7.163.5 16 .5s16 7.163 16 16-7.163 16-16 16-16-7.163-16-16zm8 0c0-4.4 3.6-8 8-8s8 3.6 7.9 7.6c0 4.4-3.6 8-8 8-.8 0-1.6-.1-2.3-.3.3-.5.6-1.1.8-1.7.1-.4.6-2.2.6-2.2.3.5 1.1 1 2 1 2.6 0 4.3-2.4 4.3-5.5 0-2.4-2-4.6-5.1-4.6-3.8 0-5.7 2.7-5.7 5 0 1.4.5 2.6 1.6 3.1.2.1.3 0 .4-.2.1-.1.2-.5.2-.6.07-.141.041-.183-.017-.266-.024-.034-.054-.075-.083-.134-.3-.4-.5-.9-.5-1.6 0-2 1.5-3.8 3.9-3.8 2.1 0 3.3 1.3 3.3 3.1 0 2.4-1 4.3-2.5 4.3-.9 0-1.5-.7-1.3-1.5.084-.417.22-.852.35-1.268.18-.58.35-1.124.35-1.532 0-.7-.4-1.2-1.1-1.2-.8 0-1.5.9-1.5 2.1 0 .8.3 1.3.3 1.3s-.8 3.7-1 4.4c-.1.6-.1 1.2-.1 1.8-2.8-1.2-4.8-4-4.8-7.3z" fill="#C0B7E8"/></svg>
